X:59
T:Bache bene venies
Z:Transcrit et/ou corrigé par B@D - 2005-03-15
Z:Pour toute observation mailto:-@-
M:
L:1/4
K:F
FAcc | cBA2 | ccdB | c2A2 ||
w:BA-CHE Be-ne ve-ni-es gra-tus et op-ta-tus
FGAG | BA(A/G/A) | ABGF | G2F2 ||
w:per quem nos-ter a-ni-mus__ fit le-ti-fi-ca-tus
FGAF | GAFF | EFDC | D2B,2 ||
w:Is-tud vi-num bo-num vi-num vi-num ge-ne-ro-sum
B,DFFGAFF | FG_EGF2F2 |]
w:red-dit vi-rum cu-ri-a-lem pro-bum a-ni-mo-sum
W:
W:1. BACHE Bene venies gratus et optatus
W:per quem noster animus fit letificatus
W:
W:Istud vinum bonum vinum
W: vinum generosum
W: reddit virum curialem probum animosum
W:
W:2. Iste cyphus concavus de bono mero profluus
W:siquis bibit sepius satur fit et ebrius
W:
W:3. Hec sunt vasa regia quibus spoliatur
W:Ierusalem et regalis Babilon ditatur
W:
W:11. Bachus numen faciens hominem iocundum
W:reddit cum pariter doctum et facundum
W:
W:12. Bache deus inclite omnes hic astantes
W:leti sumus munera tua prelibantes
W:
W:13. Omnes tibi canimus maxima preconia
W:te laudantes merito tempora per omnia



%%header "$P0	 $IR 	$P1"
%%footer $D - Éditions Galouvielle - 2009 - À usage librement privé dans le cadre familial

